X: 51
T: Missa De sancta cruce / Agnus Dei
N: Derived from Rue1011e-Missa_De_sancta_cruce-Agnus.krn
C: Pierre de la Rue
%%abc-version 2.0
%%abcx-abcm2ps-target-version 5.9.1 (29 Sep 2008)
%%abc-creator hum2abc beta
%%abcx-conversion-date 2019/02/17 08:01:11
%%abc-edited-by Jesse Rodin
%%abc-edited-by [Chris Gage]
%%abcx-initial-encoding-date 2012/10/13/
%%humdrum-veritas 3691542420
%%humdrum-veritas-data 3650790740
%%linebreak <none>
%%barnumbers 0
L: 1/4
M: 3/1
Q: 1/2=120
V: 1 clef=treble
V: 2 clef=treble
V: 3 clef=treble-8
V: 4 clef=treble-8
V: 5 clef=bass
K: F
[V:1] z12 | 
[V:2] G8F2G2- | 
[V:3] z12 | 
[V:4] z12 | 
[V:5] z12 | 
[V:1] d12 | 
[V:2] GFD4F2D2F2- | 
[V:3] z12 | 
[V:4] z12 | 
[V:5] z12 | 
[V:1] c2d3cA3Bc2- | 
[V:2] FEDCB,2F3EE2 | 
[V:3] z12 | 
[V:4] z12 | 
[V:5] z12 | 
[V:1] cBAGF2c3BB2 | 
[V:2] F3EFEDCD4 | 
[V:3] z12 | 
[V:4] z4z4G4 | 
[V:5] z12 | 
[V:1] c3BcBAGA4 | 
[V:2] CDEFEDG4F2 | 
[V:3] z12 | 
[V:4] A2c3de2d4 | 
[V:5] z4z4D,4 | 
[V:1] GABcBAd4^c2 | 
[V:2] G3FGFEDE4 | 
[V:3] z12 | 
[V:4] z12 | 
[V:5] E,2G,3A,B,2A,4 | 
[V:1] d12 | 
[V:2] D12 | 
[V:3] G12 | 
[V:4] B6AGB3c | 
[V:5] z12 | 
[V:1] z4z4d4 | 
[V:2] z4z4D4 | 
[V:3] B12 | 
[V:4] d2d3cBAG4 | 
[V:5] G,8G,4 | 
[V:1] f8e4 | 
[V:2] D3CC2D2E2C2 | 
[V:3] A12 | 
[V:4] F3GA2F2c4 | 
[V:5] D,3E,F,2D,2C,4 | 
[V:1] d4d2B4AG | 
[V:2] z2F2D3EF4 | 
[V:3] B12 | 
[V:4] F8B4 | 
[V:5] B,,8B,,4 | 
[V:1] A2c4B3AA2 | 
[V:2] z4z4F4 | 
[V:3] c4A2B2c4 | 
[V:4] z2A2F2G2A4 | 
[V:5] F,4z4F,4 | 
[V:1] B8z2B2 | 
[V:2] D2_E4D3CB,2- | 
[V:3] B8B4- | 
[V:4] G8z4 | 
[V:5] G,12 | 
[V:1] G2B4A2G4 | 
[V:2] B,A,G,2B,4C4 | 
[V:3] B4G8 | 
[V:4] z12 | 
[V:5] _E,8E,4 | 
[V:1] F8F4 | 
[V:2] D8D4 | 
[V:3] B4A8 | 
[V:4] z2F4EDF4 | 
[V:5] D,8D,4 | 
[V:1] B4A2G2d4 | 
[V:2] F4E2G2F4 | 
[V:3] d4c2c3BB2 | 
[V:4] F3GABc2d4 | 
[V:5] B,,4C,2_E,2D,4 | 
[V:1] e6c4BA | 
[V:2] z2G4E4DC | 
[V:3] c4G8- | 
[V:4] G4c8 | 
[V:5] C,12 | 
[V:1] G2d4c3=B=B2 | 
[V:2] G12 | 
[V:3] G12 | 
[V:4] B3GB2c2d4 | 
[V:5] z12 | 
[V:1] c4z4c4 | 
[V:2] z2G4A3GFE | 
[V:3] z12 | 
[V:4] c8z4 | 
[V:5] C,3D,E,2F,3E,D,C, | 
[V:1] d4f8 | 
[V:2] F8F4 | 
[V:3] B8d4 | 
[V:4] z2F4B4A2 | 
[V:5] B,,8B,,4 | 
[V:1] e2A2G2A3Bc2 | 
[V:2] z2F2G2F3EC2 | 
[V:3] c8A4 | 
[V:4] G2F2z2F2c4 | 
[V:5] C,2F,2E,2F,3G,A,2 | 
[V:1] d8d3c/d/ | 
[V:2] G4A2G3FF2 | 
[V:3] B4A2B2A4 | 
[V:4] B2G2d8 | 
[V:5] G,3E,F,2G,2D,4 | 
[V:1] _e2d3cB4AG | 
[V:2] G12 | 
[V:3] G12 | 
[V:4] B3cd2_e2c4 | 
[V:5] z4z4_E,4 | 
[V:1] F8F4 | 
[V:2] z4z4D4 | 
[V:3] z12 | 
[V:4] d2B4A2A4 | 
[V:5] D,8D,4 | 
[V:1] G6G2c4 | 
[V:2] E6C2E3F | 
[V:3] c8c4 | 
[V:4] z2G2c3BA2G2- | 
[V:5] C,8C,4 | 
[V:1] B2A3GG2A4 | 
[V:2] G2F2G4F4 | 
[V:3] d12- | 
[V:4] G2A2B4A4 | 
[V:5] z4G,4D,3E, | 
[V:1] z12 | 
[V:2] F2D3EF2G4 | 
[V:3] d8^c4 | 
[V:4] A2B4A4G2 | 
[V:5] F,2G,3F,E,D,E,4 | 
[V:1] A4B2A4d2- | 
[V:2] F8z4 | 
[V:3] d8f4 | 
[V:4] A4z4A4- | 
[V:5] D,12 | 
[V:1] d2c2d2B2c2A2 | 
[V:2] z12 | 
[V:3] e4d2e2c2d2 | 
[V:4] A4z2B2A2F2- | 
[V:5] z2A,2B,2G,2A,2D,2- | 
[V:1] B2A2z2A2G3E | 
[V:2] z12 | 
[V:3] z2d2e2d2e2^c2 | 
[V:4] FGABc2A4G2 | 
[V:5] D,2D,2C,2F,2E,4 | 
[V:1] FGA2D2d2c3A | 
[V:2] F3GA2D2A4 | 
[V:3] d4z2d2e2c2 | 
[V:4] A12 | 
[V:5] D,8z4 | 
[V:1] B2A4GFE4 | 
[V:2] z2A2A8 | 
[V:3] d2f2e2d4^c2 | 
[V:4] F3GA8 | 
[V:5] D,4C,2D,2A,4 | 
[V:1] z2A4G3^FF2 | 
[V:2] F3GA2B2A4 | 
[V:3] d12- | 
[V:4] z2A2F2G2A4 | 
[V:5] D,12 | 
[V:1] G2d4c2B4 | 
[V:2] G8G4 | 
[V:3] d12- | 
[V:4] B6A2G4 | 
[V:5] G,8G,4 | 
[V:1] A12 ||  
[V:2] F12 ||  
[V:3] d12 ||  
[V:4] A3FF8 ||  
[V:5] D,12 ||  
[V:1]  [K:F] [K:clef=treble][M:2/1]z8 | 
[V:2]  [K:F] [K:clef=treble][M:2/1]z8 | 
[V:3]  [K:F] [K:clef=treble-8][M:2/1]z8 | 
[V:4]  [K:F] [K:clef=treble-8][M:2/1]A4d4 | 
[V:5]  [K:F] [K:clef=bass][M:2/1]z8 | 
[V:1] z8 | 
[V:2] A,4D4 | 
[V:3] z8 | 
[V:4] c4f4 | 
[V:5] z8 | 
[V:1] z8 | 
[V:2] C4F4- | 
[V:3] z8 | 
[V:4] e2c2d2cB | 
[V:5] z8 | 
[V:1] A4d4 | 
[V:2] F2E2D2CB, | 
[V:3] f8- | 
[V:4] A4B4 | 
[V:5] z8 | 
[V:1] c4f4- | 
[V:2] A,3B,C2D2- | 
[V:3] f8 | 
[V:4] F8 | 
[V:5] z8 | 
[V:1] f2e2d2cB | 
[V:2] D2C2B,CDE | 
[V:3] d8- | 
[V:4] z8 | 
[V:5] D,4G,4 | 
[V:1] A4D4 | 
[V:2] F4D2G2- | 
[V:3] d8- | 
[V:4] z2f4e2 | 
[V:5] F,4B,4- | 
[V:1] z8 | 
[V:2] G2F2G2A2- | 
[V:3] d8 | 
[V:4] d2c2B2AG | 
[V:5] B,2A,2G,2F,E, | 
[V:1] z8 | 
[V:2] A2F2G4 | 
[V:3] d4^c4 | 
[V:4] F2A2GFG2 | 
[V:5] D,2F,2E,4 | 
[V:1] z4f4- | 
[V:2] F8 | 
[V:3] d8- | 
[V:4] A8 | 
[V:5] D,8 | 
[V:1] f2e2d2cB | 
[V:2] z8 | 
[V:3] d8- | 
[V:4] z8 | 
[V:5] D,4G,4 | 
[V:1] A2D2d4- | 
[V:2] z8 | 
[V:3] d8 | 
[V:4] z8 | 
[V:5] F,4B,4- | 
[V:1] d2c2B2AG | 
[V:2] z8 | 
[V:3] z8 | 
[V:4] z8 | 
[V:5] B,2A,2G,2F,E, | 
[V:1] F4A4 | 
[V:2] A4F2F2 | 
[V:3] f6e2 | 
[V:4] z4z2c2 | 
[V:5] D,8 | 
[V:1] B2d3cB2- | 
[V:2] G2FED2G2 | 
[V:3] d2cBA2G2 | 
[V:4] B2AGF2G2- | 
[V:5] z8 | 
[V:1] B2A4G2 | 
[V:2] E2F2D3E | 
[V:3] A4B4 | 
[V:4] G2F2G4 | 
[V:5] z8 | 
[V:1] A8 | 
[V:2] FGA4GF | 
[V:3] A8- | 
[V:4] c8- | 
[V:5] z2F,4E,D, | 
[V:1] z8 | 
[V:2] E2F2E2A2- | 
[V:3] A8 | 
[V:4] c8 | 
[V:5] C,2F,2C,2F,2- | 
[V:1] z8 | 
[V:2] A2G2FEF2 | 
[V:3] c4d4 | 
[V:4] z4F4 | 
[V:5] F,G,E,2D,4 | 
[V:1] z4G4 | 
[V:2] G3FEDG2- | 
[V:3] e8 | 
[V:4] c6BA | 
[V:5] C,8- | 
[V:1] c4c4 | 
[V:2] G2F4E2 | 
[V:3] c8 | 
[V:4] G2A2G4 | 
[V:5] C,8 | 
[V:1] A3Bc2d2 | 
[V:2] F3GA4 | 
[V:3] z4A4 | 
[V:4] F8 | 
[V:5] z2F,4D,2 | 
[V:1] e4f2e2- | 
[V:2] z2A4AA- | 
[V:3] c8 | 
[V:4] z8 | 
[V:5] A,4F,2C2- | 
[V:1] e2d3^cc2 | 
[V:2] AGG2A4 | 
[V:3] d4e4 | 
[V:4] z8 | 
[V:5] CA,B,2A,4 | 
[V:1] d4z2A2 | 
[V:2] z2A4GF | 
[V:3] d8 | 
[V:4] z8 | 
[V:5] D,8 | 
[V:1] B2c2A2B2- | 
[V:2] G2A2F2G2- | 
[V:3] z8 | 
[V:4] z8 | 
[V:5] z8 | 
[V:1] B2AGA2B2 | 
[V:2] G2FEF2G2 | 
[V:3] z8 | 
[V:4] z8 | 
[V:5] z8 | 
[V:1] G2A4GF | 
[V:2] E2F4ED | 
[V:3] z8 | 
[V:4] z8 | 
[V:5] z8 | 
[V:1] G2A2F2G2- | 
[V:2] E2F2D2E2- | 
[V:3] z8 | 
[V:4] z8 | 
[V:5] z8 | 
[V:1] GFEDE4 | 
[V:2] EDD4^C2 | 
[V:3] z8 | 
[V:4] z4A4 | 
[V:5] z8 | 
[V:1] D4z4 | 
[V:2] D8 | 
[V:3] f8- | 
[V:4] B2A4d2- | 
[V:5] D,8 | 
[V:1] z8 | 
[V:2] z8 | 
[V:3] f8 | 
[V:4] d2cBA2c2 | 
[V:5] D,4z2A,2 | 
[V:1] z8 | 
[V:2] z8 | 
[V:3] f8- | 
[V:4] d3ec2d2- | 
[V:5] B,3CA,2B,2- | 
[V:1] z8 | 
[V:2] z8 | 
[V:3] f8 | 
[V:4] d2cBc2d2 | 
[V:5] B,2A,G,A,2B,2 | 
[V:1] z8 | 
[V:2] z8 | 
[V:3] e4f4 | 
[V:4] B2c4BA | 
[V:5] G,2A,4G,F, | 
[V:1] z8 | 
[V:2] z8 | 
[V:3] e4d4 | 
[V:4] B2c2A2G2 | 
[V:5] G,2A,2F,2B,2- | 
[V:1] z8 | 
[V:2] z8 | 
[V:3] c4B4 | 
[V:4] A4d4 | 
[V:5] B,2A,3G,G,2 | 
[V:1] z8 | 
[V:2] z8 | 
[V:3] A3Bc2d2- | 
[V:4] c3BA2GF | 
[V:5] A,2F,4E,D, | 
[V:1] z8 | 
[V:2] z4D4 | 
[V:3] d2c4=B2 | 
[V:4] G2A2F4 | 
[V:5] E,2F,2D,4 | 
[V:1] G4GFED | 
[V:2] E4G4 | 
[V:3] c8 | 
[V:4] G8 | 
[V:5] C,8- | 
[V:1] C4c4 | 
[V:2] GFEDC2G2 | 
[V:3] z8 | 
[V:4] z8 | 
[V:5] C,8 | 
[V:1] cBAGF3G | 
[V:2] A4AGFE | 
[V:3] z8 | 
[V:4] z8 | 
[V:5] z8 | 
[V:1] A2B2c2d2- | 
[V:2] D4E2F2- | 
[V:3] z8 | 
[V:4] z8 | 
[V:5] z8 | 
[V:1] d2c3=B=B2 | 
[V:2] FEDCD4 | 
[V:3] z8 | 
[V:4] z8 | 
[V:5] z8 | 
[V:1] c8 | 
[V:2] C8- | 
[V:3] e8- | 
[V:4] G8 | 
[V:5] C,8 | 
[V:1] z8 | 
[V:2] C8 | 
[V:3] e8 | 
[V:4] G4G4 | 
[V:5] C,4C,4 | 
[V:1] z8 | 
[V:2] z8 | 
[V:3] d4c4 | 
[V:4] A6G2- | 
[V:5] F,6E,2 | 
[V:1] z8 | 
[V:2] z8 | 
[V:3] z2B2c4 | 
[V:4] G2F2A2G2 | 
[V:5] D,4z2C,2 | 
[V:1] z8 | 
[V:2] z8 | 
[V:3] z2B2c4 | 
[V:4] d4e4 | 
[V:5] D,4z2C,2 | 
[V:1] z8 | 
[V:2] z8 | 
[V:3] B2c2B2c2- | 
[V:4] z2e2f2e2 | 
[V:5] D,2C,2D,2C,2 | 
[V:1] z4F4 | 
[V:2] z8 | 
[V:3] cBAGA4 | 
[V:4] fedcd4 | 
[V:5] F,2G,2D,4 | 
[V:1] G4B4- | 
[V:2] G8 | 
[V:3] G4G4 | 
[V:4] B6A2 | 
[V:5] _E,8- | 
[V:1] B2AGd4- | 
[V:2] _E4F4 | 
[V:3] B8 | 
[V:4] G4F4 | 
[V:5] E,4D,4 | 
[V:1] d2cBf4 | 
[V:2] D4D4 | 
[V:3] B4B4- | 
[V:4] F8- | 
[V:5] B,,8 | 
[V:1] d2f4d2- | 
[V:2] F8 | 
[V:3] B4d4- | 
[V:4] F8 | 
[V:5] B,,8 | 
[V:1] d2cBA2B2 | 
[V:2] F3GA2G2 | 
[V:3] d4d4 | 
[V:4] z8 | 
[V:5] B,,4F,2G,2 | 
[V:1] c2A4B2 | 
[V:2] E2F2A2G2- | 
[V:3] c4d4 | 
[V:4] z8 | 
[V:5] A,2F,4G,2 | 
[V:1] c2A4G2 | 
[V:2] GFF4E2 | 
[V:3] c4B4 | 
[V:4] z8 | 
[V:5] A,2F,2G,4 | 
[V:1] A4z4 | 
[V:2] F2EDC2F2 | 
[V:3] c4A4 | 
[V:4] z4c3d | 
[V:5] F,8 | 
[V:1] z8 | 
[V:2] E2A4G2 | 
[V:3] c2d2B4 | 
[V:4] e2f2d4 | 
[V:5] z8 | 
[V:1] c8 | 
[V:2] A8 | 
[V:3] A8 | 
[V:4] c8 | 
[V:5] F,8 | 
[V:1] d4d4 | 
[V:2] z8 | 
[V:3] B8 | 
[V:4] F4F4 | 
[V:5] D,4D,4 | 
[V:1] e8 | 
[V:2] G8- | 
[V:3] c8 | 
[V:4] G6AB | 
[V:5] C,8- | 
[V:1] z4c4 | 
[V:2] G4E4 | 
[V:3] e8 | 
[V:4] c4c4 | 
[V:5] C,8 | 
[V:1] d4f4 | 
[V:2] F4D4 | 
[V:3] d8 | 
[V:4] F4B4 | 
[V:5] B,,8 | 
[V:1] e2e4dc | 
[V:2] G2G4FE | 
[V:3] c8 | 
[V:4] G4c4 | 
[V:5] C,8 | 
[V:1] d2B2c4 | 
[V:2] F2G2A4 | 
[V:3] z4c4 | 
[V:4] F8- | 
[V:5] z4F,4 | 
[V:1] d4d2f2- | 
[V:2] B8 | 
[V:3] B4d4- | 
[V:4] F8 | 
[V:5] B,,8- | 
[V:1] f2f2e2c2 | 
[V:2] B4G4- | 
[V:3] d4c4 | 
[V:4] z8 | 
[V:5] B,,4C,4 | 
[V:1] d4c4- | 
[V:2] G4G4 | 
[V:3] B4c4 | 
[V:4] z4G4 | 
[V:5] G,4C,4 | 
[V:1] c2B2A4- | 
[V:2] F6E2 | 
[V:3] A4c4 | 
[V:4] A4F4 | 
[V:5] F,8 | 
[V:1] A2G2G4 | 
[V:2] D4E4 | 
[V:3] B8 | 
[V:4] G8 | 
[V:5] z4E,4 | 
[V:1] A4d4 | 
[V:2] C4D4 | 
[V:3] A4f4- | 
[V:4] F4B4- | 
[V:5] F,4B,,4- | 
[V:1] d4c4 | 
[V:2] B,4z4 | 
[V:3] f4e4 | 
[V:4] B2A2G4 | 
[V:5] B,,4C,4 | 
[V:1] A4B4- | 
[V:2] F8- | 
[V:3] f4d4- | 
[V:4] F8 | 
[V:5] D,4B,,4- | 
[V:1] B4A4- | 
[V:2] F4E4 | 
[V:3] d4c4 | 
[V:4] z8 | 
[V:5] B,,4C,4 | 
[V:1] A2GFG4 | 
[V:2] F4D4 | 
[V:3] B8 | 
[V:4] F4B4 | 
[V:5] D,4B,,4 | 
[V:1] A8- | 
[V:2] C4F4 | 
[V:3] A8- | 
[V:4] c2F2c4- | 
[V:5] F,6E,D, | 
[V:1] A8- | 
[V:2] E2E4D2 | 
[V:3] A8- | 
[V:4] c4F4 | 
[V:5] C,4D,4 | 
[V:1] A8 |]  
[V:2] E8 |]  
[V:3] A8 |]  
[V:4] c8 |]  
[V:5] A,,8 |]  



